icons/config-js-light.svg

<svg width="16" height="16" viewBox="0 0 16 16" fill="none" xmlns="http://www.w3.org/2000/svg">
<path d="M13.5 9.946H13V10.946H13.5V9.946Z" fill="#AC4D00"/>
<path d="M13 9.946V10.946H12.55C12.485 11.2856 12.3524 11.6087 12.16 11.896L12.83 12.566L12.12 13.276L11.79 12.946H12V7.736L12.12 7.616L12.83 8.326L12.16 8.996C12.3524 9.28334 12.485 9.6064 12.55 9.946H13Z" fill="#AC4D00"/>
<path d="M12.9999 4.946V7.43599L12.6499 7.086L12.1199 6.556L11.9999 6.676V5.946H8.99994V2.946H3.99994V12.946H6.48995L6.63994 13.096L7.34995 13.806L7.48995 13.946H3.95995C3.83016 13.9471 3.7015 13.9217 3.58188 13.8713C3.46226 13.8209 3.35419 13.7466 3.2643 13.653C3.17441 13.5594 3.10459 13.4484 3.05913 13.3268C3.01367 13.2052 2.99353 13.0756 2.99994 12.946V2.946C2.99353 2.81636 3.01367 2.68677 3.05913 2.5652C3.10459 2.44362 3.17441 2.33261 3.2643 2.23898C3.35419 2.14535 3.46226 2.07106 3.58188 2.02068C3.7015 1.9703 3.83016 1.94488 3.95995 1.946H9.63994L12.9999 4.946Z" fill="#4F575E"/>
<path d="M12 7.736V12.946H11.79L11.45 12.606C11.225 12.7551 10.9789 12.8697 10.72 12.946H9.28C9.02107 12.8697 8.77502 12.7551 8.55 12.606L8.21001 12.946H7.55L7.17 12.566L7.84 11.896C7.64765 11.6087 7.51502 11.2856 7.45 10.946H6.5V9.946H7.45C7.51502 9.6064 7.64765 9.28334 7.84 8.996L7.17 8.326L7.88 7.616L8.55 8.286C8.83734 8.09366 9.1604 7.96102 9.5 7.896V6.946H10.5V7.896C10.8396 7.96102 11.1627 8.09366 11.45 8.286L12 7.736ZM11.9 10.446C11.9 10.0702 11.7886 9.70287 11.5798 9.39042C11.371 9.07797 11.0743 8.83443 10.7271 8.69063C10.3799 8.54682 9.9979 8.50919 9.62933 8.5825C9.26077 8.65582 8.92221 8.83677 8.65649 9.10249C8.39077 9.36821 8.20982 9.70676 8.13651 10.0753C8.06319 10.4439 8.10082 10.8259 8.24463 11.1731C8.38844 11.5203 8.63196 11.817 8.94441 12.0258C9.25687 12.2346 9.62422 12.346 10 12.346C10.5039 12.346 10.9872 12.1458 11.3435 11.7895C11.6998 11.4332 11.9 10.9499 11.9 10.446Z" fill="#AC4D00"/>
<path d="M10.72 12.946C10.6479 12.9674 10.5744 12.9841 10.5 12.996V13.946H9.50003V12.996C9.42569 12.9841 9.35221 12.9674 9.28003 12.946H10.72Z" fill="#AC4D00"/>
<path d="M9.99985 11.596C10.635 11.596 11.1499 11.0811 11.1499 10.446C11.1499 9.81087 10.635 9.296 9.99985 9.296C9.36473 9.296 8.84985 9.81087 8.84985 10.446C8.84985 11.0811 9.36473 11.596 9.99985 11.596Z" fill="#AC4D00"/>
<path d="M8.21005 12.946L7.88005 13.276L7.55005 12.946H8.21005Z" fill="#AC4D00"/>
</svg>

<svg xmlns="http://www.w3.org/2000/svg" viewBox="0 0 16 15.95"><defs><style>.a{fill:#ac4d00;}.b{fill:#4f575e;}</style></defs><title>config-js-light</title><rect class="a" x="13" y="9.95" width="0.5" height="1"/><path class="a" d="M13,10v1h-.45a2.58,2.58,0,0,1-.39,1l.67.67-.71.71L11.79,13H12V7.74l.12-.12.71.71L12.16,9a2.58,2.58,0,0,1,.39.95Z"/><path class="b" d="M13,5V7.44l-.35-.35-.53-.53L12,6.68V6H9V3H4V13H6.49l.15.15.71.71.14.14H4a1,1,0,0,1-1-1V3A1,1,0,0,1,4,2H9.64Z"/><path class="a" d="M12,7.74V13h-.21l-.34-.34a2.71,2.71,0,0,1-.73.34H9.28a2.71,2.71,0,0,1-.73-.34L8.21,13H7.55l-.38-.38.67-.67a2.58,2.58,0,0,1-.39-1h-1V10h1A2.58,2.58,0,0,1,7.84,9l-.67-.67.71-.71.67.67A2.58,2.58,0,0,1,9.5,7.9V7h1v1a2.58,2.58,0,0,1,.95.39Zm-.1,2.71a1.9,1.9,0,1,0-1.9,1.9A1.9,1.9,0,0,0,11.9,10.45Z"/><path class="a" d="M10.72,13,10.5,13V14h-1V13L9.28,13Z"/><circle class="a" cx="10" cy="10.45" r="1.15"/><polygon class="a" points="8.21 12.95 7.88 13.28 7.55 12.95 8.21 12.95"/></svg>
